packages/axiom-materials/src/icon_svgs/format-italic.svg

<svg height="16" viewBox="0 0 16 16" width="16" xmlns="http://www.w3.org/2000/svg"><path d="m2.3040196 8.49293564 1.3810543-6.99293564h-1.32256553v-1.5h5v1.5h-1.65236227l-1.3810543 6.99293564h1.31510316v1.5h-1.61134233l-.00139516.00706436h-2.0250722l.00139516-.00706436h-1.36358547v-1.5z" fill-rule="evenodd" transform="translate(4 3)"/></svg>

<?xml version="1.0" encoding="UTF-8"?>
<svg width="16px" height="16px" viewBox="0 0 16 16" version="1.1" xmlns="http://www.w3.org/2000/svg" xmlns:xlink="http://www.w3.org/1999/xlink">
    <!-- Generator: Sketch 51.3 (57544) - http://www.bohemiancoding.com/sketch -->
    <title>format-italic</title>
    <g id="format-italic" stroke="none" stroke-width="1" fill="none" fill-rule="evenodd">
        <g transform="translate(4.000000, 3.000000)" fill="#000000">
            <path d="M2.3040196,8.49293564 L3.6850739,1.5 L2.36250837,1.5 L2.36250837,0 L7.36250837,0 L7.36250837,1.5 L5.7101461,1.5 L4.3290918,8.49293564 L5.64419496,8.49293564 L5.64419496,9.99293564 L4.03285263,9.99293564 L4.03145747,10 L2.00638527,10 L2.00778043,9.99293564 L0.644194958,9.99293564 L0.644194958,8.49293564 L2.3040196,8.49293564 Z"></path>
        </g>
    </g>
</svg>
